icons/svg/facebook.svg

<svg class="icon" viewBox="0 0 1024 1024" xmlns="http://www.w3.org/2000/svg" width="200" height="200"><path d="M758.88 43.424c-15.456-2.272-68.576-6.848-130.304-6.848-129.152 0-217.696 78.848-217.696 223.424v124.576H265.152v169.152H410.88v433.696h174.848V553.728H730.88l22.272-169.152H585.728v-108c0-48.576 13.152-82.272 83.424-82.272h89.728V43.424z"/></svg>

<svg t="1565927468621" class="icon" viewBox="0 0 1024 1024" version="1.1" xmlns="http://www.w3.org/2000/svg" p-id="4239" width="200" height="200"><path d="M758.88 43.424C743.424 41.152 690.304 36.576 628.576 36.576 499.424 36.576 410.88 115.424 410.88 260L410.88 384.576 265.152 384.576 265.152 553.728 410.88 553.728 410.88 987.424 585.728 987.424 585.728 553.728 730.88 553.728 753.152 384.576 585.728 384.576 585.728 276.576C585.728 228 598.88 194.304 669.152 194.304L758.88 194.304 758.88 43.424Z" p-id="4240"></path></svg>
